public/pieces/california/wP.svg

<svg height="100" viewBox="-50 -100 345.843 506.462" width="100" xmlns="http://www.w3.org/2000/svg" xmlns:xlink="http://www.w3.org/1999/xlink"><clipPath id="a"><path d="m0 0h255.84375v376.460938h-255.84375zm0 0"/></clipPath><g transform="translate(0 -20)"><path d="m239.523438 340.414062c0-90.296874-74.453126-119.867187-65.914063-176.246093 21.621094-15.023438 35.601563-40.277344 34.886719-68.765625-1.078125-43.007813-36.171875-78.046875-79.179688-79.058594-45.722656-1.078125-83.121094 35.664062-83.121094 81.140625 0 27.609375 13.796876 51.984375 34.863282 66.648437 9.5625 56.414063-64.738282 86.351563-64.738282 176.28125 32.953126 9.878907 54.332032 19.726563 112.164063 19.726563s78.085937-9.847656 111.039063-19.726563" fill="#ccc"/><path d="m126 30.414062s-24.914062 25.917969-26 64c-1.089844 38.082032 14 60.558594 14 66 0 5.441407.441406 28.414063-5 48-5.441406 19.585938-36 89-34 136 1.394531 32.761719-55.574219-10.386718-55.574219-10.386718l7.613281-56.578125 56.578126-82.691407-4.351563-34.816406-33.730469-52.226562 19.585938-62.019532zm0 0" fill="#fff"/><g clip-path="url(#a)"><path d="m239.523438 340.414062h.007812zm-206.386719-11.882812c.621093.195312 1.238281.394531 1.855469.585938 26.015624 8.214843 46.566406 14.703124 93.492187 14.703124 46.304687 0 66.226563-6.347656 91.445313-14.386718.921874-.292969 1.847656-.589844 2.78125-.886719-3.058594-36.445313-19.957032-61.050781-36.351563-84.917969-16.632813-24.214844-33.832031-49.257812-28.886719-81.90625.671875-4.433594 3.140625-8.398437 6.824219-10.957031 18.007813-12.515625 28.433594-33.058594 27.882813-54.953125-.851563-34.023438-29.222657-62.351562-63.246094-63.152344-17.652344-.441406-34.285156 6.128906-46.878906 18.433594-12.601563 12.304688-19.539063 28.78125-19.539063 46.390625 0 21.199219 10.414063 41.109375 27.863281 53.25 3.597656 2.503906 6.039063 6.351563 6.769532 10.667969 5.585937 32.957031-11.597657 58.300781-28.21875 82.808594-16.125 23.785156-32.75 48.300781-35.792969 84.320312m95.347656 47.929688c-51.957031 0-76.90625-7.875-103.320313-16.214844-4.359374-1.378906-8.863281-2.800782-13.53125-4.199219-6.902343-2.070313-11.632812-8.425781-11.632812-15.632813 0-52.707031 23.242188-86.980468 41.914062-114.519531 15.082032-22.246093 24.191407-36.601562 23.664063-53.023437-22.488281-18.445313-35.703125-46.089844-35.703125-75.386719 0-26.472656 10.429688-51.242187 29.371094-69.742187 18.933594-18.496094 43.949218-28.324219 70.453125-27.7148442 25.011719.5859372 48.613281 10.7265622 66.460937 28.5468752 17.847656 17.824219 28.023438 41.410156 28.652344 66.417969.757812 30.242187-12.40625 58.761718-35.542969 77.777343-.054687 17.359375 10.722657 33.050781 23.996094 52.378907 18.96875 27.621093 42.578125 61.988281 42.578125 115.265624 0 7.207032-4.730469 13.5625-11.632812 15.632813-4.988282 1.496094-9.757813 3.015625-14.367188 4.484375-25.703125 8.195312-49.980469 15.929688-101.359375 15.929688"/></g></g></svg>

<?xml version="1.0" encoding="UTF-8"?>
<svg xmlns="http://www.w3.org/2000/svg" xmlns:xlink="http://www.w3.org/1999/xlink" width="100" height="100" viewBox="-50 -100 345.843 506.462" version="1.1">
<defs>
<clipPath id="clip1">
  <path d="M 0 0 L 255.84375 0 L 255.84375 376.460938 L 0 376.460938 Z M 0 0 "/>
</clipPath>
</defs>
<g id="surface1" transform="translate(0 -20)">
<path style=" stroke:none;fill-rule:nonzero;fill:rgb(80.000305%,80.000305%,80.000305%);fill-opacity:1;" d="M 239.523438 340.414062 C 239.523438 250.117188 165.070312 220.546875 173.609375 164.167969 C 195.230469 149.144531 209.210938 123.890625 208.496094 95.402344 C 207.417969 52.394531 172.324219 17.355469 129.316406 16.34375 C 83.59375 15.265625 46.195312 52.007812 46.195312 97.484375 C 46.195312 125.09375 59.992188 149.46875 81.058594 164.132812 C 90.621094 220.546875 16.320312 250.484375 16.320312 340.414062 C 49.273438 350.292969 70.652344 360.140625 128.484375 360.140625 C 186.316406 360.140625 206.570312 350.292969 239.523438 340.414062 "/>
<path style=" stroke:none;fill-rule:nonzero;fill:rgb(100%,100%,100%);fill-opacity:1;" d="M 126 30.414062 C 126 30.414062 101.085938 56.332031 100 94.414062 C 98.910156 132.496094 114 154.972656 114 160.414062 C 114 165.855469 114.441406 188.828125 109 208.414062 C 103.558594 228 73 297.414062 75 344.414062 C 76.394531 377.175781 19.425781 334.027344 19.425781 334.027344 L 27.039062 277.449219 L 83.617188 194.757812 L 79.265625 159.941406 L 45.535156 107.714844 L 65.121094 45.695312 Z M 126 30.414062 "/>
<g clip-path="url(#clip1)" clip-rule="nonzero">
<path style=" stroke:none;fill-rule:nonzero;fill:rgb(0%,0%,0%);fill-opacity:1;" d="M 239.523438 340.414062 L 239.53125 340.414062 Z M 33.136719 328.53125 C 33.757812 328.726562 34.375 328.925781 34.992188 329.117188 C 61.007812 337.332031 81.558594 343.820312 128.484375 343.820312 C 174.789062 343.820312 194.710938 337.472656 219.929688 329.433594 C 220.851562 329.140625 221.777344 328.84375 222.710938 328.546875 C 219.652344 292.101562 202.753906 267.496094 186.359375 243.628906 C 169.726562 219.414062 152.527344 194.371094 157.472656 161.722656 C 158.144531 157.289062 160.613281 153.324219 164.296875 150.765625 C 182.304688 138.25 192.730469 117.707031 192.179688 95.8125 C 191.328125 61.789062 162.957031 33.460938 128.933594 32.660156 C 111.28125 32.21875 94.648438 38.789062 82.054688 51.09375 C 69.453125 63.398438 62.515625 79.875 62.515625 97.484375 C 62.515625 118.683594 72.929688 138.59375 90.378906 150.734375 C 93.976562 153.238281 96.417969 157.085938 97.148438 161.402344 C 102.734375 194.359375 85.550781 219.703125 68.929688 244.210938 C 52.804688 267.996094 36.179688 292.511719 33.136719 328.53125 M 128.484375 376.460938 C 76.527344 376.460938 51.578125 368.585938 25.164062 360.246094 C 20.804688 358.867188 16.300781 357.445312 11.632812 356.046875 C 4.730469 353.976562 0 347.621094 0 340.414062 C 0 287.707031 23.242188 253.433594 41.914062 225.894531 C 56.996094 203.648438 66.105469 189.292969 65.578125 172.871094 C 43.089844 154.425781 29.875 126.78125 29.875 97.484375 C 29.875 71.011719 40.304688 46.242188 59.246094 27.742188 C 78.179688 9.246094 103.195312 -0.582031 129.699219 0.0273438 C 154.710938 0.613281 178.3125 10.753906 196.160156 28.574219 C 214.007812 46.398438 224.183594 69.984375 224.8125 94.992188 C 225.570312 125.234375 212.40625 153.753906 189.269531 172.769531 C 189.214844 190.128906 199.992188 205.820312 213.265625 225.148438 C 232.234375 252.769531 255.84375 287.136719 255.84375 340.414062 C 255.84375 347.621094 251.113281 353.976562 244.210938 356.046875 C 239.222656 357.542969 234.453125 359.0625 229.84375 360.53125 C 204.140625 368.726562 179.863281 376.460938 128.484375 376.460938 "/>
</g>
</g>
</svg>
